X:2957
T:James Porteous' Farewell to old Dr. Clapperton
O:england
M:6/8
A:North-West
R:Slow air
K:Gmin
d|\
{c}B>AG FDF| Bcd {e}dcd| \
B>AG GDB| [AF]Bc FBd|\
{c}B>AG G,B,D| GBd ~gab|
{b}agf {e}dcA| G3 G,3 :|\
^f|\
gdg g>ab/a/| g>dg/a/ bag| \
fcf f>ga/g/| fdf d/c/B/A/G/F/|
gdg g>ab/a/| gdg/a/ bag| \
{b}agf {e}dcA| G3 G,2^f|\
gdg g>ab/a/| g>dg/a/ bag|
fcf f>ga/g/ fcf d/c/B/A/G/F/|\
{c}B>AG {G}FDG| B>cd gab| {b}agf dcA| G3 G,2 |]


